images/icon/logo_image.svg

<svg width="30" height="31" viewBox="0 0 30 31" fill="none" xmlns="http://www.w3.org/2000/svg">
<path d="M3.00026 11.4985C3.39026 11.8885 3.51026 12.4435 3.37526 12.9685C2.81925 15.1306 2.87116 17.4041 3.52526 19.5385C4.84526 23.9035 8.68526 27.1885 13.1853 27.8635C21.4653 29.0785 28.4703 21.7735 26.7303 13.4335C25.7553 8.73853 21.8853 5.01853 17.1753 4.19353C15.4512 3.88695 13.6815 3.95344 11.9853 4.38854C11.4603 4.52354 10.8903 4.38854 10.5153 4.01354C9.67527 3.17354 10.0953 1.77853 11.2203 1.47853C13.4253 0.908535 15.8103 0.818535 18.2703 1.34353C24.2403 2.63353 28.9053 7.61354 29.8203 13.6435C31.3803 23.8585 22.5903 32.5135 12.3603 30.7735C6.34526 29.7385 1.47026 24.9835 0.300264 18.9985C-0.164736 16.6135 -0.0597362 14.3185 0.480264 12.2035C0.780264 11.0785 2.17526 10.6735 3.00026 11.4985ZM7.50026 6.24853C7.50026 7.49353 6.49526 8.49853 5.25026 8.49853C4.00526 8.49853 3.00026 7.49353 3.00026 6.24853C3.00026 5.00353 4.00526 3.99853 5.25026 3.99853C6.49526 3.99853 7.50026 5.00353 7.50026 6.24853ZM15.0453 11.4835H14.9403L13.2003 16.4485H16.7853L15.0453 11.4835ZM15.0003 24.9985C19.9653 24.9985 24.0003 20.9635 24.0003 15.9985C24.0003 11.0335 19.9653 6.99853 15.0003 6.99853C10.0353 6.99853 6.00026 11.0335 6.00026 15.9985C6.00026 20.9635 10.0353 24.9985 15.0003 24.9985ZM9.91526 19.9435L13.5603 10.2535C13.7853 9.65353 14.3553 9.24853 15.0003 9.24853C15.6453 9.24853 16.2303 9.65353 16.4553 10.2535L20.1003 19.9435C20.3403 20.5735 19.8753 21.2485 19.2003 21.2485C18.7953 21.2485 18.4203 20.9935 18.2853 20.6035L17.4453 18.1885H12.6003L11.7453 20.6185C11.6103 21.0085 11.2503 21.2635 10.8303 21.2635C10.6727 21.2626 10.5177 21.2238 10.3783 21.1503C10.239 21.0769 10.1193 20.9709 10.0296 20.8414C9.93983 20.7119 9.88258 20.5627 9.86268 20.4065C9.84278 20.2502 9.86082 20.0914 9.91526 19.9435Z" fill="#2285E0"/>
</svg>

<svg width="30" height="31" fill="none" xmlns="http://www.w3.org/2000/svg"><path d="M3 11.498c.39.39.51.946.375 1.47a12.12 12.12 0 00.15 6.57c1.32 4.366 5.16 7.65 9.66 8.325 8.28 1.215 15.285-6.09 13.545-14.43-.975-4.694-4.845-8.414-9.555-9.24a12.254 12.254 0 00-5.19.196c-.525.135-1.095 0-1.47-.375-.84-.84-.42-2.235.705-2.535 2.205-.57 4.59-.66 7.05-.135 5.97 1.29 10.635 6.27 11.55 12.3 1.56 10.214-7.23 18.87-17.46 17.13C6.345 29.737 1.47 24.983.3 18.997a15.4 15.4 0 01.18-6.795c.3-1.124 1.695-1.53 2.52-.704zm4.5-5.25a2.247 2.247 0 01-2.25 2.25A2.247 2.247 0 013 6.249a2.247 2.247 0 012.25-2.25 2.247 2.247 0 012.25 2.25zm7.545 5.235h-.105l-1.74 4.965h3.585l-1.74-4.965zM15 24.998c4.965 0 9-4.035 9-9 0-4.964-4.035-9-9-9s-9 4.035-9 9c0 4.966 4.035 9 9 9zm-5.085-5.055l3.645-9.69A1.54 1.54 0 0115 9.25c.645 0 1.23.405 1.455 1.005l3.645 9.69a.962.962 0 01-.9 1.305.97.97 0 01-.915-.645l-.84-2.415H12.6l-.855 2.43a.956.956 0 01-.915.645.981.981 0 01-.915-1.32z" fill="#2285E0"/></svg>
